src/mobile/src/icons/logo.svg

<?xml version="1.0" encoding="UTF-8" standalone="no"?>
<svg
   version="1.1"
   width="780"
   height="340"
   style="clip-rule:evenodd;fill-rule:evenodd;image-rendering:optimizeQuality;shape-rendering:geometricPrecision;text-rendering:geometricPrecision"
   id="svg8"
   xmlns="http://www.w3.org/2000/svg"
   xmlns:svg="http://www.w3.org/2000/svg">
  <defs
     id="defs8" />
  <g
     id="g12"
     transform="translate(14.322034,1.4322034)">
    <g
       id="g9">
      <g
         id="g6"
         transform="translate(-4)">
        <path
           style="opacity:1"
           fill="#000000"
           shape-rendering="optimizeQuality"
           d="m 582.5,175.5 c 13.6,0.4 22.4,7.1 26.5,20 1,4.6 1.5,9.3 1.5,14 -14.3,-0.3 -28.7,0 -43,1 3.4,14.5 12,19.3 26,14.5 3,-2.3 5,-5.3 6,-9 3.3,-0.5 6.6,-0.7 10,-0.5 -2.3,13.3 -10.3,20.3 -24,21 -18.7,-1.5 -28.3,-11.7 -29,-30.5 0.7,-17.3 9.3,-27.4 26,-30.5 z m -4,10 c 11.8,-1.5 18.8,3.5 21,15 -10.7,0.2 -21.3,0 -32,-0.5 1.3,-6.7 4.9,-11.6 11,-14.5 z"
           id="path6" />
      </g>
      <g
         id="g8"
         transform="translate(-4)">
        <path
           style="opacity:1"
           fill="#000000"
           shape-rendering="optimizeQuality"
           d="m 690.5,175.5 c 9.1,-0.7 16.9,1.9 23.5,8 1.7,3.1 2.9,6.5 3.5,10 -3.6,1 -7.3,1.3 -11,1 -0.3,-4.5 -2.7,-7.3 -7,-8.5 -4.8,-0.8 -9.4,-0.5 -14,1 -4.1,3.7 -3.7,7 1,10 6.9,2.5 13.9,4.5 21,6 10.2,3.2 14,10 11.5,20.5 -2.6,6 -7.1,9.9 -13.5,11.5 -10.3,2.7 -19.9,1.3 -29,-4 -4,-4 -6,-8.8 -6,-14.5 3.4,-0.2 6.7,0 10,0.5 2.6,7.1 7.8,10.6 15.5,10.5 4.6,-0.3 8.6,-2 12,-5 1.3,-4.1 0.1,-7.2 -3.5,-9.5 -8,-2.3 -16,-4.7 -24,-7 -9.4,-6 -11.3,-13.8 -5.5,-23.5 4.5,-4 9.7,-6.3 15.5,-7 z"
           id="path8" />
      </g>
      <g
         id="g7"
         transform="translate(-4)">
        <path
           style="opacity:1"
           fill="#000000"
           shape-rendering="optimizeQuality"
           d="m 635.5,175.5 c 9.1,-0.7 16.9,1.9 23.5,8 1.7,3.1 2.9,6.5 3.5,10 -3.6,1 -7.3,1.3 -11,1 -0.3,-4.5 -2.7,-7.3 -7,-8.5 -4.8,-0.8 -9.4,-0.5 -14,1 -4.1,3.7 -3.7,7 1,10 6.9,2.5 13.9,4.5 21,6 10.2,3.2 14,10 11.5,20.5 -2.6,6 -7.1,9.9 -13.5,11.5 -10.3,2.7 -19.9,1.3 -29,-4 -4,-4 -6,-8.8 -6,-14.5 3.4,-0.2 6.7,0 10,0.5 2.6,7.1 7.8,10.6 15.5,10.5 4.6,-0.3 8.6,-2 12,-5 1.3,-4.1 0.1,-7.2 -3.5,-9.5 -8,-2.3 -16,-4.7 -24,-7 -9.4,-6 -11.3,-13.8 -5.5,-23.5 4.5,-4 9.7,-6.3 15.5,-7 z"
           id="path7" />
      </g>
    </g>
    <g
       id="g2">
      <path
         style="opacity:1"
         fill="#000000"
         shape-rendering="optimizeQuality"
         d="m 618.1,87.3 c -0.21533,3.033749 -0.6481,6.080366 -1.5,9 -2.74007,9.39076 -5.75806,19.08012 -11.5,27 -3.11979,4.30313 -7.93432,7.07651 -12,10.5 -25.92387,21.82907 -79,64 -79,64 l -1,2.5 65,83.5 c 0,0 -44.42662,3.32439 -66,-1 -7.04017,-1.4112 -13.78045,-4.41213 -20,-8 -7.71118,-4.44834 -14.61527,-10.29636 -21,-16.5 -19.60542,-19.04935 -52.5,-63 -52.5,-63 -1.41139,-9.26164 -0.2509,-11.78937 5.5,-15 30.69995,-20.83211 192.5,-157 192.5,-157 0,0 3.01078,42.714356 1.5,64 z"
         id="path2" />
    </g>
  </g>
  <g
     id="g11">
    <g
       id="g10">
      <g
         id="g3">
        <path
           style="opacity:1"
           fill="#000000"
           shape-rendering="optimizeQuality"
           d="m 382.5,154.5 c 3.3,0 6.7,0 10,0 0,26.3 0,52.7 0,79 -3.3,0 -6.7,0 -10,0 0.2,-2 0,-4 -0.5,-6 -1.2,2.5 -3,4.3 -5.5,5.5 -23.8,5.9 -36.8,-3.5 -39,-28 2,-24 14.7,-33.3 38,-28 2.5,1.5 4.7,3.3 6.5,5.5 0.5,-9.3 0.7,-18.7 0.5,-28 z m -22,30 c 11.3,-1.5 18.5,3.2 21.5,14 2.3,9.4 0.1,17.6 -6.5,24.5 -16.1,5.9 -25.1,0.1 -27,-17.5 -0.3,-9.7 3.7,-16.7 12,-21 z"
           id="path3" />
      </g>
      <g
         id="g5">
        <path
           style="opacity:1"
           fill="#000000"
           shape-rendering="optimizeQuality"
           d="m 302.5,174.5 c 6.6,0.1 12.9,1.3 19,3.5 2.6,1.9 4.4,4.4 5.5,7.5 0.3,13 0.7,26 1,39 1.7,0.9 3.5,1.2 5.5,1 0.2,2.7 0,5.4 -0.5,8 -4.2,2.6 -8.3,2.6 -12.5,0 -1.4,-1.7 -2.3,-3.7 -2.5,-6 -8.3,6.9 -17.8,9.1 -28.5,6.5 -7.1,-2.4 -10.7,-7.4 -11,-15 0,-6.8 3,-11.8 9,-15 8.5,-2.6 17.2,-4.6 26,-6 4.9,-3.3 5.3,-7.1 1,-11.5 -6.7,-2.7 -13.4,-2.6 -20,0.5 -1.7,2.2 -2.7,4.7 -3,7.5 -3.3,0 -6.7,0 -10,0 1.2,-12.8 8.2,-19.5 21,-20 z m 13,31 c 3.6,12.4 -1.4,19.4 -15,21 -5.4,-0.3 -9.1,-3 -11,-8 0.4,-3 1.7,-5.5 4,-7.5 7.4,-2.2 14.7,-4 22,-5.5 z"
           id="path5" />
      </g>
      <g
         id="g4">
        <path
           style="opacity:1"
           fill="#000000"
           shape-rendering="optimizeQuality"
           d="m 245.5,174.5 c 13.6,0.4 22.4,7.1 26.5,20 1,4.6 1.5,9.3 1.5,14 -14.3,-0.3 -28.7,0 -43,1 3.4,14.5 12,19.3 26,14.5 3,-2.3 5,-5.3 6,-9 3.3,-0.5 6.6,-0.7 10,-0.5 -2.3,13.3 -10.3,20.3 -24,21 -18.7,-1.5 -28.3,-11.7 -29,-30.5 0.7,-17.3 9.3,-27.4 26,-30.5 z m -4,10 c 11.8,-1.5 18.8,3.5 21,15 -10.7,0.2 -21.3,0 -32,-0.5 1.3,-6.7 4.9,-11.6 11,-14.5 z"
           id="path4" />
      </g>
    </g>
    <g
       id="g1"
       mask="none"
       clip-path="none">
      <path
         id="path1"
         style="opacity:1"
         d="m 37.300781,0.09960937 c -5.19999,1.49999703 -10.50001,3.00000303 -16,4.50000003 C 9.9008042,9.5995994 2.9007761,18.099633 0.30078125,30.099609 V 267.09961 c 2.39999525,13.59998 9.10002195,24.80002 19.99999975,33.5 19.699962,12.49998 39.40004,25.00002 59,37.5 h 13 c 4.699992,-2.2 7.899999,-5.90002 9.499999,-11 0.4,-34.79994 0.7,-69.50008 1,-104 9.99998,11.69998 19.70002,23.70002 29,36 l 14.5,14.5 c 10.69998,9.19998 23.00004,14.8 37,17 20.99996,0.8 42.00004,0.7 63,-0.5 -25.69994,-32.69994 -51.30004,-65.30006 -77,-98 8.79998,-2.4 17.10002,-5.90002 25,-10.5 39.49992,-28.09994 53.99998,-65.9001 43.5,-113.500001 C 225.0008,31.399683 199.8007,8.799592 162.30078,0.09960937 Z m -19,42.99999963 c 3.399997,10.29999 9.400009,18.800007 18,25.5 11.499989,8.099992 23.500013,15.500007 36,22 7.699993,4.599996 12.100001,11.500011 13,20.500001 0.3,70.19993 -10e-7,140.20007 -1,210 -17.599982,-11.19999 -35.300017,-22.30001 -53,-33.5 -8.999991,-6.89999 -13.7,-16.10001 -14,-27.5 -0.299999,-72.49993 1e-6,-144.80007 1,-217.000001 z M 130.21094,70.988281 c 6.35154,-0.0016 12.71486,0.03633 19.08984,0.111328 2.7,0.7 5.3,1.300002 8,2 16.19998,9.199982 20.09998,22.200033 11.5,39.000001 -4.09998,5.69998 -9.60002,9.6 -16.5,11.5 -16.29996,1.4 -32.40002,1.9 -48.5,1.5 0.3,-12.99998 -2.70002,-25.400023 -8.999999,-37.000001 -5.999988,-6.899986 -13.200016,-12.300006 -21.5,-16 18.899962,-0.749998 37.855509,-1.10664 56.910159,-1.111328 z" />
    </g>
  </g>
  <path
     style="font-size:37.3333px;font-family:'.ThonburiUIWatch';-inkscape-font-specification:'.ThonburiUIWatch'"
     d="m 751.42896,163.11598 h -9.69791 v 23.93488 h -3.60937 v -23.93488 h -9.69791 v -3.20833 h 23.00519 z m 27.81768,23.93488 h -3.60937 v -23.388 l -7.54687,15.91405 h -2.15104 l -7.49218,-15.91405 v 23.388 h -3.37239 v -27.14321 h 4.92187 l 7.23697,15.11197 6.99999,-15.11197 h 5.01302 z"
     id="text12"
     aria-label="TM" />
</svg>

<?xml version="1.0" encoding="UTF-8"?>
<!DOCTYPE svg PUBLIC "-//W3C//DTD SVG 1.1//EN" "http://www.w3.org/Graphics/SVG/1.1/DTD/svg11.dtd">
<svg xmlns="http://www.w3.org/2000/svg" version="1.1" width="724px" height="338px"
  style="fill-rule: evenodd; shape-rendering: geometricPrecision; text-rendering: geometricPrecision; image-rendering: optimizeQuality; clip-rule: evenodd"
  xmlns:xlink="http://www.w3.org/1999/xlink">
  <g>
    <path style="opacity: 1" fill="#000000" shape-rendering="optimizeQuality"
      d="M 37.3 0.1 C 79 0.1 120.6 0.1 162.3 0.1 C 199.8 8.8 225 31.4 237.8 68.1 C 248.3 115.7 233.8 153.5 194.3 181.6 C 186.4 186.2 178.1 189.7 169.3 192.1 C 195 224.8 220.6 257.4 246.3 290.1 C 225.3 291.3 204.3 291.4 183.3 290.6 C 169.3 288.4 157 282.8 146.3 273.6 C 141.5 268.8 136.6 263.9 131.8 259.1 C 122.5 246.8 112.8 234.8 102.8 223.1 C 102.5 257.6 102.2 292.3 101.8 327.1 C 100.2 332.2 97 335.9 92.3 338.1 C 88 338.1 83.6 338.1 79.3 338.1 C 59.7 325.6 40 313.1 20.3 300.6 C 9.4 291.9 2.7 280.7 0.3 267.1 C 0.3 188.1 0.3 109.1 0.3 30.1 C 2.9 18.1 9.9 9.6 21.3 4.6 C 26.8 3.1 32.1 1.6 37.3 0.1 Z M 18.3 43.1 C 21.7 53.4 27.7 61.9 36.3 68.6 C 47.8 76.7 59.8 84.1 72.3 90.6 C 80 95.2 84.4 102.1 85.3 111.1 C 85.6 181.3 85.3 251.3 84.3 321.1 C 66.7 309.9 49 298.8 31.3 287.6 C 22.3 280.7 17.6 271.5 17.3 260.1 C 17 187.6 17.3 115.3 18.3 43.1 Z M 73.3 72.1 C 98.5 71.1 123.8 70.8 149.3 71.1 C 152 71.8 154.6 72.4 157.3 73.1 C 173.5 82.3 177.4 95.3 168.8 112.1 C 164.7 117.8 159.2 121.7 152.3 123.6 C 136 125 119.9 125.5 103.8 125.1 C 104.1 112.1 101.1 99.7 94.8 88.1 C 88.8 81.2 81.6 75.8 73.3 72.1 Z" />
  </g>
  <g>
    <path style="opacity: 1" fill="#000000" shape-rendering="optimizeQuality"
      d="M 618.1 43.3 C 618.7 47.6 618.7 51.9 618.1 56.3 C 616.8 66.6 616.8 77 618.1 87.3 C 617.6 90.3 617.1 93.3 616.6 96.3 C 613.8 105.8 610 114.8 605.1 123.3 C 602.1 126.7 599.1 130 596.1 133.3 C 595 133.2 594 133.3 593.1 133.8 C 567.8 156.5 541.5 177.8 514.1 197.8 C 513.5 198.5 513.2 199.4 513.1 200.3 C 534.5 228.3 556.2 256.1 578.1 283.8 C 556.1 284.7 534.1 284.4 512.1 282.8 C 505 281.2 498.3 278.6 492.1 274.8 C 484.7 269.8 477.7 264.3 471.1 258.3 C 454.1 237 436.6 216 418.6 195.3 C 416.8 192 416.8 188.7 418.6 185.3 C 419.7 182.7 421.5 181.1 424.1 180.3 C 428.9 177.4 433.5 174.2 438.1 170.8 C 471.1 143.4 504.5 116.4 538.1 89.8 C 564.3 67.6 590.4 45.5 616.6 23.3 C 617.3 30 617.8 36.6 618.1 43.3 Z" />
  </g>
  <g>
    <path style="opacity: 1" fill="#000000" shape-rendering="optimizeQuality"
      d="M 382.5 154.5 C 385.8 154.5 389.2 154.5 392.5 154.5 C 392.5 180.8 392.5 207.2 392.5 233.5 C 389.2 233.5 385.8 233.5 382.5 233.5 C 382.7 231.5 382.5 229.5 382 227.5 C 380.8 230 379 231.8 376.5 233 C 352.7 238.9 339.7 229.5 337.5 205 C 339.5 181 352.2 171.7 375.5 177 C 378 178.5 380.2 180.3 382 182.5 C 382.5 173.2 382.7 163.8 382.5 154.5 Z M 360.5 184.5 C 371.8 183 379 187.7 382 198.5 C 384.3 207.9 382.1 216.1 375.5 223 C 359.4 228.9 350.4 223.1 348.5 205.5 C 348.2 195.8 352.2 188.8 360.5 184.5 Z" />
  </g>
  <g>
    <path style="opacity: 1" fill="#000000" shape-rendering="optimizeQuality"
      d="M 245.5 174.5 C 259.1 174.9 267.9 181.6 272 194.5 C 273 199.1 273.5 203.8 273.5 208.5 C 259.2 208.2 244.8 208.5 230.5 209.5 C 233.9 224 242.5 228.8 256.5 224 C 259.5 221.7 261.5 218.7 262.5 215 C 265.8 214.5 269.1 214.3 272.5 214.5 C 270.2 227.8 262.2 234.8 248.5 235.5 C 229.8 234 220.2 223.8 219.5 205 C 220.2 187.7 228.8 177.6 245.5 174.5 Z M 241.5 184.5 C 253.3 183 260.3 188 262.5 199.5 C 251.8 199.7 241.2 199.5 230.5 199 C 231.8 192.3 235.4 187.4 241.5 184.5 Z" />
  </g>
  <g>
    <path style="opacity: 1" fill="#000000" shape-rendering="optimizeQuality"
      d="M 302.5 174.5 C 309.1 174.6 315.4 175.8 321.5 178 C 324.1 179.9 325.9 182.4 327 185.5 C 327.3 198.5 327.7 211.5 328 224.5 C 329.7 225.4 331.5 225.7 333.5 225.5 C 333.7 228.2 333.5 230.9 333 233.5 C 328.8 236.1 324.7 236.1 320.5 233.5 C 319.1 231.8 318.2 229.8 318 227.5 C 309.7 234.4 300.2 236.6 289.5 234 C 282.4 231.6 278.8 226.6 278.5 219 C 278.5 212.2 281.5 207.2 287.5 204 C 296 201.4 304.7 199.4 313.5 198 C 318.4 194.7 318.8 190.9 314.5 186.5 C 307.8 183.8 301.1 183.9 294.5 187 C 292.8 189.2 291.8 191.7 291.5 194.5 C 288.2 194.5 284.8 194.5 281.5 194.5 C 282.7 181.7 289.7 175 302.5 174.5 Z M 315.5 205.5 C 319.1 217.9 314.1 224.9 300.5 226.5 C 295.1 226.2 291.4 223.5 289.5 218.5 C 289.9 215.5 291.2 213 293.5 211 C 300.9 208.8 308.2 207 315.5 205.5 Z" />
  </g>
  <g>
    <path style="opacity: 1" fill="#000000" shape-rendering="optimizeQuality"
      d="M 582.5 175.5 C 596.1 175.9 604.9 182.6 609 195.5 C 610 200.1 610.5 204.8 610.5 209.5 C 596.2 209.2 581.8 209.5 567.5 210.5 C 570.9 225 579.5 229.8 593.5 225 C 596.5 222.7 598.5 219.7 599.5 216 C 602.8 215.5 606.1 215.3 609.5 215.5 C 607.2 228.8 599.2 235.8 585.5 236.5 C 566.8 235 557.2 224.8 556.5 206 C 557.2 188.7 565.8 178.6 582.5 175.5 Z M 578.5 185.5 C 590.3 184 597.3 189 599.5 200.5 C 588.8 200.7 578.2 200.5 567.5 200 C 568.8 193.3 572.4 188.4 578.5 185.5 Z" />
  </g>
  <g>
    <path style="opacity: 1" fill="#000000" shape-rendering="optimizeQuality"
      d="M 635.5 175.5 C 644.6 174.8 652.4 177.4 659 183.5 C 660.7 186.6 661.9 190 662.5 193.5 C 658.9 194.5 655.2 194.8 651.5 194.5 C 651.2 190 648.8 187.2 644.5 186 C 639.7 185.2 635.1 185.5 630.5 187 C 626.4 190.7 626.8 194 631.5 197 C 638.4 199.5 645.4 201.5 652.5 203 C 662.7 206.2 666.5 213 664 223.5 C 661.4 229.5 656.9 233.4 650.5 235 C 640.2 237.7 630.6 236.3 621.5 231 C 617.5 227 615.5 222.2 615.5 216.5 C 618.9 216.3 622.2 216.5 625.5 217 C 628.1 224.1 633.3 227.6 641 227.5 C 645.6 227.2 649.6 225.5 653 222.5 C 654.3 218.4 653.1 215.3 649.5 213 C 641.5 210.7 633.5 208.3 625.5 206 C 616.1 200 614.2 192.2 620 182.5 C 624.5 178.5 629.7 176.2 635.5 175.5 Z" />
  </g>
  <g>
    <path style="opacity: 1" fill="#000000" shape-rendering="optimizeQuality"
      d="M 690.5 175.5 C 699.6 174.8 707.4 177.4 714 183.5 C 715.7 186.6 716.9 190 717.5 193.5 C 713.9 194.5 710.2 194.8 706.5 194.5 C 706.2 190 703.8 187.2 699.5 186 C 694.7 185.2 690.1 185.5 685.5 187 C 681.4 190.7 681.8 194 686.5 197 C 693.4 199.5 700.4 201.5 707.5 203 C 717.7 206.2 721.5 213 719 223.5 C 716.4 229.5 711.9 233.4 705.5 235 C 695.2 237.7 685.6 236.3 676.5 231 C 672.5 227 670.5 222.2 670.5 216.5 C 673.9 216.3 677.2 216.5 680.5 217 C 683.1 224.1 688.3 227.6 696 227.5 C 700.6 227.2 704.6 225.5 708 222.5 C 709.3 218.4 708.1 215.3 704.5 213 C 696.5 210.7 688.5 208.3 680.5 206 C 671.1 200 669.2 192.2 675 182.5 C 679.5 178.5 684.7 176.2 690.5 175.5 Z" />
  </g>
</svg>
